library/images/5e7e6b89b39e214e5b85dc9b_car.svg

<svg height="46" viewBox="0 0 123 46" width="123" xmlns="http://www.w3.org/2000/svg"><g fill="#458bc9" transform="matrix(-1 0 0 1 121 2)"><path d="m10.05224 38.7071313 1.5652296.0161494-.3908619-1.515728c-.2254897-.8744291-.3418227-1.7328733-.3418227-2.5827089 0-5.7673281 4.7543792-10.4664882 10.6030739-10.4664882 5.8483797 0 10.6027079 4.6992103 10.6027079 10.4664882 0 .9341691-.1352556 1.8682995-.3972447 2.7960337l-.4268993 1.5117005 1.570756.0143711c20.5309359.1878409 39.13107.285774 53.0254556.2434657l1.6169389-.0049236-.4731088-1.5461836c-.2981305-.9743308-.4517357-1.9855931-.4517357-3.0126554 0-5.7675088 4.7538302-10.4661264 10.6030738-10.4661264 5.8477594 0 10.6027084 4.699321 10.6027084 10.4661264 0 .8635651-.118987 1.733827-.349058 2.6118028l-.434359 1.6575563 1.706175-.1585157c.174932-.0162524.301773-.0288951.413651-.0416957 8.204401-1.0131834 11.361404-5.7166609 11.088192-11.9523817-.091716-2.0932892-.879379-3.0037343-2.382323-3.3532759-.059789-.013783-.059789-.013783-.114562-.0262052-.475018-.1078367-.38204-.018983-.414256-.6264683-.057388-1.0821335-.586697-2.267449-1.486537-3.5904557-.499844-.7349058-1.108252-1.5001314-1.802285-2.2849085-.677892-.7665256-1.401137-1.5113987-2.124224-2.2074965-.035854-.0345152-.071351-.0685658-.106477-.1021418 1.146553-1.4661446 1.421996-2.5798294.473221-3.4690074-.749596-.7025112-1.80494-.6655792-3.379343-.2891068-.346542.0828654-.708027.1833259-1.07893.2976146-.23635.0728283-.46865.1487952-.693509.2259264-1.031993-1.0699036-2.777832-2.28796372-5.16757-3.68892544-1.004094-.58864105-2.1089594-1.20030836-3.2984565-1.82958955-1.9814099-1.04822785-4.1008598-2.09540705-6.219856-3.09298864-.7413309-.34900391-1.4298722-.66698506-2.0481739-.94777881-.0586288-.02662553-.1146421-.05201912-.1679713-.07615656-.0389746-.23854437-.08484-.475385-.1385422-.70429489-.1486663-.63370217-.3322334-1.13009056-.6243004-1.51202863-.6484145-.84793601-1.7529182-.90238891-2.51537-.07086723l-.0235863.0244443c-.2489542.24685612-.842808.59087112-1.6365285.94563759-.475623.21258753-.990714.41629706-1.5065125.60258283-.140229.0506451-.2658824.09482505-.3735245.13186601-11.6040294-2.65759901-20.8664402-2.6238174-29.3917961-.95848857-1.298753.25369623-4.3839272.9628038-4.7166423 1.0225605-1.5641497.28089743-4.2032571 1.81010083-7.8308353 4.33751086-.4809144.33506315-.9743565.68474369-1.478686 1.04752465-1.5971281 1.14886706-3.2342088 2.37828123-4.8230638 3.60753208-.5559791.4301449-1.066375.8296663-1.5200723 1.1884216-.0964048.0762309-.1829489.1448348-.2591414.2053641-12.4056242.5039217-20.8360491 2.7423458-26.0062353 6.2123811-2.15141344 1.4439481-3.60752313 3.0209884-4.48311559 4.6259251-.36597653.6708248-.59067655 1.2623512-.71273456 1.7441423-1.75585454 1.1615221-2.78494992 2.8039149-3.16602015 4.7601389-.31849072 1.634972-.16817964 3.3396031.26926425 4.9856093.1641491.6176574.33115881 1.0900424.45090491 1.3728038l.05838569.1378685.09047164.1192959c1.02498041 1.351539 2.60163092 2.2204836 4.55684201 2.720934 1.69897578.4348651 3.44775105.5466493 4.94466736.483825.0914949-.0038399.16538745-.0077948.22029058-.0112736.10344096.001154.26962785.002944.49426146.0052617zm-5.06410695-2.8028596c-1.40794963-.3603749-2.48806351-.9363198-3.14630951-1.728564-.07738666-.2050832-.18075924-.5180192-.28592105-.9137202-.35205305-1.324699-.4719124-2.6839865-.23303002-3.9102892.2862231-1.4693262 1.06411812-2.6241371 2.48827115-3.4344515l.55649436-.3166341.0468486-.6385517c.01599236-.2179777.15470686-.7210472.53827443-1.4241159.68827841-1.2615952 1.87888931-2.5510869 3.71373801-3.7825686 4.80867048-3.2273995 12.94182758-5.3655426 25.15413818-5.8222675l.3972681-.0148573.3098198-.2491073c.0988021-.0794407.2876297-.2300829.555285-.4417278.4472687-.353672.9510275-.7479981 1.5000566-1.172766 1.5683114-1.2133569 3.183793-2.42655051 4.7559439-3.55745072.4948266-.35594512.978474-.6986846 1.4491834-1.02663774 3.2961934-2.29652731 5.8066243-3.75117036 6.8831007-3.94448912.4036325-.0724937 3.5129496-.78715035 4.7525199-1.02928595 8.2883904-1.61904037 17.3065017-1.63684857 28.7189578 1.01699506l.3213405.07472426.3143769-.1000526c.1582328-.05035866.4252644-.14025319.7657739-.26323161.5673124-.20489055 1.1353323-.42953252 1.6706128-.66878495.5937896-.26540403 1.1072002-.52903612 1.5335941-.800552.034024.17008409.0638918.34813192.0893521.52667377.0223493.15672554.0362265.27603141.0421454.33730197l.067498.69872022.642134.28360154c.1365333.06030057.3956721.17625997.7598431.34164351.6086537.27641224 1.2872913.58981969 2.018307.93396745 2.0877082.98285177 4.1749627 2.01412388 6.1198102 3.04300908 1.1603303.61385102 2.2351624 1.20889148 3.2069776 1.77860934 2.647021 1.55179149 4.431601 2.86720419 5.016121 3.71427139l.541813.7851778.887132-.350802c.067389-.0266479.19834-.0764162.378499-.1415101.303053-.1094972.627382-.2191144.958031-.3209996.324583-.1000159.637459-.1869676.930347-.2570031.175593-.0419879.341043-.077128.494327-.1050348-.179977.2355951-.410157.5084647-.691884.8157424l-.828299.9034215.920744.8089997c.040926.035959.122676.1091617.239356.215883.197279.180442.417825.3870538.655719.6160675.679794.6544202 1.35943 1.3543807 1.990894 2.0684081.631418.7139756 1.178559 1.4021419 1.615609 2.0447235.674941.9923447 1.045448 1.8220467 1.074391 2.3678098.09541 1.7991002.843224 2.5137452 2.279571 2.8398186l.102219.023369c.472778.1099548.484597.123616.528284 1.1207165.208517 4.759125-1.858769 8.1631048-7.719913 9.2698813.061579-.4967945.093012-.9940663.093012-1.4917004 0-7.098652-5.835747-12.8661264-13.0027084-12.8661264-7.1684914 0-13.0030738 5.7668175-13.0030738 12.8661264 0 .7307821.0630614 1.4552009.1869138 2.1677879-13.3645401.0303349-30.8024903-.0615903-50.0050683-.2339989.1018911-.6417986.1539925-1.2876183.1539925-1.9355974 0-7.0990663-5.835069-12.8664882-13.0027079-12.8664882-7.1679425 0-13.00307385 5.7673601-13.00307385 12.8664882 0 .5679093.04123604 1.13564.12177364 1.7041124-1.13810057.0021261-2.41336582-.1162407-3.61842564-.4246845z"/><path d="m21.5 25.8c-4.8050454 0-8.7 3.8945553-8.7 8.6997217 0 .8582618.1498785 1.6986969.4327541 2.5969323 1.1325063 3.6045089 4.4486497 6.103346 8.2672459 6.103346 3.7526433 0 7.025769-2.4134852 8.2133869-5.9301407.3176906-.9450562.4866131-1.8509151.4866131-2.7715289 0-4.8037464-3.8954825-8.6983304-8.7-8.6983304zm0 2.4c3.479158 0 6.3 2.8201913 6.3 6.2983304 0 .640448-.1218367 1.293806-.3609827 2.0052129-.8615503 2.5511332-3.228527 4.2964567-5.9390173 4.2964567-2.7578019 0-5.1557369-1.806933-5.9778393-4.4234962-.2144046-.6808158-.3221607-1.2850517-.3221607-1.8767821 0-3.4796279 2.8203829-6.2997217 6.3-6.2997217z"/><path d="m97.4983307 25.8c-4.8046657 0-8.6983307 3.8943874-8.6983307 8.6997217 0 1.0124205.1942251 2.0071148.5593195 2.9972463 1.2519876 3.3985996 4.471839 5.703032 8.1406805 5.703032 3.768334 0 7.050245-2.4338446 8.225429-5.9732441.309793-.9347977.474571-1.8237844.474571-2.7284255-.003228-4.8042888-3.898842-8.6983304-8.7016693-8.6983304zm0 2.4c3.4778293 0 6.2993323 2.8203636 6.3016693 6.2991366 0 .6260438-.118709 1.2664841-.352515 1.9719911-.853003 2.5690617-3.226015 4.3288723-5.947485 4.3288723-2.6513485 0-4.9802436-1.6667792-5.8887573-4.132997-.271294-.735746-.4112427-1.4524721-.4112427-2.1672813 0-3.4799506 2.8192481-6.2997217 6.2983307-6.2997217z"/></g></svg>

<?xml version="1.0" encoding="UTF-8"?>
<svg width="123px" height="46px" viewBox="0 0 123 46" version="1.1" xmlns="http://www.w3.org/2000/svg" xmlns:xlink="http://www.w3.org/1999/xlink">
    <!-- Generator: Sketch 57.1 (83088) - https://sketch.com -->
    <title>car</title>
    <desc>Created with Sketch.</desc>
    <g id="Page-1" stroke="none" stroke-width="1" fill="none" fill-rule="evenodd">
        <g id="Desktop-HD-Copy-3" transform="translate(-141.000000, -2019.000000)" fill="#458BC9" fill-rule="nonzero">
            <g id="car" transform="translate(202.500000, 2042.000000) scale(-1, 1) translate(-202.500000, -2042.000000) translate(143.000000, 2021.000000)">
                <path d="M10.05224,38.7071313 L11.6174696,38.7232807 L11.2266077,37.2075527 C11.001118,36.3331236 10.884785,35.4746794 10.884785,34.6248438 C10.884785,28.8575157 15.6391642,24.1583556 21.4878589,24.1583556 C27.3362386,24.1583556 32.0905668,28.8575659 32.0905668,34.6248438 C32.0905668,35.5590129 31.9553112,36.4931433 31.6933221,37.4208775 L31.2664228,38.932578 L32.8371788,38.9469491 C53.3681147,39.13479 71.9682488,39.2327231 85.8626344,39.1904148 L87.4795733,39.1854912 L87.0064645,37.6393076 C86.708334,36.6649768 86.5547288,35.6537145 86.5547288,34.6266522 C86.5547288,28.8591434 91.308559,24.1605258 97.1578026,24.1605258 C103.005562,24.1605258 107.760511,28.8598468 107.760511,34.6266522 C107.760511,35.4902173 107.641524,36.3604792 107.411453,37.238455 L106.977094,38.8960113 L108.683269,38.7374956 C108.858201,38.7212432 108.985042,38.7086005 109.09692,38.6957999 C117.301321,37.6826165 120.458324,32.979139 120.185112,26.7434182 C120.093396,24.650129 119.305733,23.7396839 117.802789,23.3901423 C117.743,23.3763593 117.743,23.3763593 117.688227,23.3639371 C117.213209,23.2561004 117.306187,23.3449541 117.273971,22.7374688 C117.216583,21.6553353 116.687274,20.4700198 115.787434,19.1470131 C115.28759,18.4121073 114.679182,17.6468817 113.985149,16.8621046 C113.307257,16.095579 112.584012,15.3507059 111.860925,14.6546081 C111.825071,14.6200929 111.789574,14.5860423 111.754448,14.5524663 C112.901001,13.0863217 113.176444,11.9726369 112.227669,11.0834589 C111.478073,10.3809477 110.422729,10.4178797 108.848326,10.7943521 C108.501784,10.8772175 108.140299,10.977678 107.769396,11.0919667 C107.533046,11.164795 107.300746,11.2407619 107.075887,11.3178931 C106.043894,10.2479895 104.298055,9.02992938 101.908317,7.62896766 C100.904223,7.04032661 99.7993576,6.4286593 98.6098605,5.79937811 C96.6284506,4.75115026 94.5090007,3.70397106 92.3900045,2.70638947 C91.6486736,2.35738556 90.9601323,2.03940441 90.3418306,1.75861066 C90.2832018,1.73198513 90.2271885,1.70659154 90.1738593,1.6824541 C90.1348847,1.44390973 90.0890193,1.2070691 90.0353171,0.978159213 C89.8866508,0.344457043 89.7030837,-0.15193135 89.4110167,-0.533869421 C88.7626022,-1.38180543 87.6580985,-1.43625833 86.8956467,-0.604736645 L86.8720604,-0.58029235 C86.6231062,-0.333436234 86.0292524,0.0105787692 85.2355319,0.365345241 C84.7599089,0.577932765 84.2448179,0.781642296 83.7290194,0.96792807 C83.5887904,1.01857317 83.463137,1.06275312 83.3554949,1.09979408 C71.7514655,-1.55780493 62.4890547,-1.52402332 53.9636988,0.141305506 C52.6649458,0.395001744 49.5797716,1.10410931 49.2470565,1.16386601 C47.6829068,1.44476344 45.0437994,2.97396684 41.4162212,5.50137687 C40.9353068,5.83644002 40.4418647,6.18612056 39.9375352,6.54890152 C38.3404071,7.69776858 36.7033264,8.92718275 35.1144714,10.1564336 C34.5584923,10.5865785 34.0480964,10.9860999 33.5943991,11.3448552 C33.4979943,11.4210861 33.4114502,11.48969 33.3352577,11.5502193 C20.9296335,12.054141 12.4992086,14.2925651 7.3290224,17.7626004 C5.17760896,19.2065485 3.72149927,20.7835888 2.84590681,22.3885255 C2.47993028,23.0593503 2.25523026,23.6508767 2.13317225,24.1326678 C0.377317706,25.2941899 -0.651777669,26.9365827 -1.0328479,28.8928067 C-1.35133862,30.5277787 -1.20102754,32.2324098 -0.763583653,33.878416 C-0.599434548,34.4960734 -0.432424836,34.9684584 -0.312678741,35.2512198 L-0.254293047,35.3890883 L-0.163821412,35.5083842 C0.861158997,36.8599232 2.43780951,37.7288678 4.3930206,38.2293182 C6.09199638,38.6641833 7.84077165,38.7759675 9.33768796,38.7131432 C9.42918286,38.7093033 9.50307541,38.7053484 9.55797854,38.7018696 C9.6614195,38.7030236 9.82760639,38.7048136 10.05224,38.7071313 Z M4.98813305,35.9042717 C3.58018342,35.5438968 2.50006954,34.9679519 1.84182354,34.1757077 C1.76443688,33.9706245 1.6610643,33.6576885 1.55590249,33.2619875 C1.20384944,31.9372885 1.08399009,30.578001 1.32287247,29.3516983 C1.60909557,27.8823721 2.38699059,26.7275612 3.81114362,25.9172468 L4.36763798,25.6006127 L4.41448658,24.962061 C4.43047894,24.7440833 4.56919344,24.2410138 4.95276101,23.5379451 C5.64103942,22.2763499 6.83165032,20.9868582 8.66649902,19.7553765 C13.4751695,16.527977 21.6083266,14.3898339 33.8206372,13.933109 L34.2179053,13.9182517 L34.5277251,13.6691444 C34.6265272,13.5897037 34.8153548,13.4390615 35.0830101,13.2274166 C35.5302788,12.8737446 36.0340376,12.4794185 36.5830667,12.0546506 C38.1513781,10.8412937 39.7668597,9.62810009 41.3390106,8.49719988 C41.8338372,8.14125476 42.3174846,7.79851528 42.788194,7.47056214 C46.0843874,5.17403483 48.5948183,3.71939178 49.6712947,3.52607302 C50.0749272,3.45357932 53.1842443,2.73892267 54.4238146,2.49678707 C62.712205,0.877746696 71.7303163,0.859938498 83.1427724,3.51378213 L83.4641129,3.58850639 L83.7784898,3.48845379 C83.9367226,3.43809513 84.2037542,3.3482006 84.5442637,3.22522218 C85.1115761,3.02033163 85.679596,2.79568966 86.2148765,2.55643723 C86.8086661,2.2910332 87.3220767,2.02740111 87.7484706,1.75588523 C87.7824946,1.92596932 87.8123624,2.10401715 87.8378227,2.282559 C87.860172,2.43928454 87.8740492,2.55859041 87.8799681,2.61986097 L87.9474661,3.31858119 L88.5896001,3.60218273 C88.7261334,3.6624833 88.9852722,3.7784427 89.3494432,3.94382624 C89.9580969,4.22023848 90.6367345,4.53364593 91.3677502,4.87779369 C93.4554584,5.86064546 95.5427129,6.89191757 97.4875604,7.92080277 C98.6478907,8.53465379 99.7227228,9.12969425 100.694538,9.69941211 C103.341559,11.2512036 105.126139,12.5666163 105.710659,13.4136835 L106.252472,14.1988613 L107.139604,13.8480593 C107.206993,13.8214114 107.337944,13.7716431 107.518103,13.7065492 C107.821156,13.597052 108.145485,13.4874348 108.476134,13.3855496 C108.800717,13.2855337 109.113593,13.198582 109.406481,13.1285465 C109.582074,13.0865586 109.747524,13.0514185 109.900808,13.0235117 C109.720831,13.2591068 109.490651,13.5319764 109.208924,13.8392541 L108.380625,14.7426756 L109.301369,15.5516753 C109.342295,15.5876343 109.424045,15.660837 109.540725,15.7675583 C109.738004,15.9480003 109.95855,16.1546121 110.196444,16.3836258 C110.876238,17.038046 111.555874,17.7380065 112.187338,18.4520339 C112.818756,19.1660095 113.365897,19.8541758 113.802947,20.4967574 C114.477888,21.4891021 114.848395,22.3188041 114.877338,22.8645672 C114.972748,24.6636674 115.720562,25.3783124 117.156909,25.7043858 L117.259128,25.7277548 C117.731906,25.8377096 117.743725,25.8513708 117.787412,26.8484713 C117.995929,31.6075963 115.928643,35.0115761 110.067499,36.1183526 C110.129078,35.6215581 110.160511,35.1242863 110.160511,34.6266522 C110.160511,27.5280002 104.324764,21.7605258 97.1578026,21.7605258 C89.9893112,21.7605258 84.1547288,27.5273433 84.1547288,34.6266522 C84.1547288,35.3574343 84.2177902,36.0818531 84.3416426,36.7944401 C70.9771025,36.824775 53.5391523,36.7328498 34.3365743,36.5604412 C34.4384654,35.9186426 34.4905668,35.2728229 34.4905668,34.6248438 C34.4905668,27.5257775 28.6554978,21.7583556 21.4878589,21.7583556 C14.3199164,21.7583556 8.48478505,27.5257157 8.48478505,34.6248438 C8.48478505,35.1927531 8.52602109,35.7604838 8.60655869,36.3289562 C7.46845812,36.3310823 6.19319287,36.2127155 4.98813305,35.9042717 Z" id="Path"></path>
                <path d="M21.5,25.8 C16.6949546,25.8 12.8,29.6945553 12.8,34.4997217 C12.8,35.3579835 12.9498785,36.1984186 13.2327541,37.096654 C14.3652604,40.7011629 17.6814038,43.2 21.5,43.2 C25.2526433,43.2 28.525769,40.7865148 29.7133869,37.2698593 C30.0310775,36.3248031 30.2,35.4189442 30.2,34.4983304 C30.2,29.694584 26.3045175,25.8 21.5,25.8 Z M21.5,28.2 C24.979158,28.2 27.8,31.0201913 27.8,34.4983304 C27.8,35.1387784 27.6781633,35.7921364 27.4390173,36.5035433 C26.577467,39.0546765 24.2104903,40.8 21.5,40.8 C18.7421981,40.8 16.3442631,38.993067 15.5221607,36.3765038 C15.3077561,35.695688 15.2,35.0914521 15.2,34.4997217 C15.2,31.0200938 18.0203829,28.2 21.5,28.2 Z" id="Path"></path>
                <path d="M97.4983307,25.8 C92.693665,25.8 88.8,29.6943874 88.8,34.4997217 C88.8,35.5121422 88.9942251,36.5068365 89.3593195,37.496968 C90.6113071,40.8955676 93.8311585,43.2 97.5,43.2 C101.268334,43.2 104.550245,40.7661554 105.725429,37.2267559 C106.035222,36.2919582 106.2,35.4029715 106.2,34.4983304 C106.196772,29.6940416 102.301158,25.8 97.4983307,25.8 Z M97.4983307,28.2 C100.97616,28.2 103.797663,31.0203636 103.8,34.4991366 C103.8,35.1251804 103.681291,35.7656207 103.447485,36.4711277 C102.594482,39.0401894 100.22147,40.8 97.5,40.8 C94.8486515,40.8 92.5197564,39.1332208 91.6112427,36.667003 C91.3399487,35.931257 91.2,35.2145309 91.2,34.4997217 C91.2,31.0197711 94.0192481,28.2 97.4983307,28.2 Z" id="Path"></path>
            </g>
        </g>
    </g>
</svg>
